public/images/brands/graygrids.svg

<svg fill="none" height="34" viewBox="0 0 160 34" width="160" xmlns="http://www.w3.org/2000/svg" xmlns:xlink="http://www.w3.org/1999/xlink"><linearGradient id="a" gradientUnits="userSpaceOnUse" x1="16.7442" x2="16.7442" y1="0" y2="33.4884"><stop offset="0" stop-color="#3558ea"/><stop offset="1" stop-color="#00f"/></linearGradient><linearGradient id="b" gradientUnits="userSpaceOnUse" x1="21.1993" x2="6.44922" y1="4.86459" y2="48.8139"><stop offset=".215628" stop-color="#1e1983" stop-opacity="0"/><stop offset=".447191" stop-color="#1e1983" stop-opacity=".19"/><stop offset=".619792" stop-color="#1e1983"/></linearGradient><clipPath id="c"><path d="m0 0h160v33.4884h-160z"/></clipPath><g clip-path="url(#c)"><path d="m33.4884 16.7442c0-9.24757-7.4967-16.7442-16.7442-16.7442-9.24757 0-16.7442 7.49663-16.7442 16.7442 0 9.2475 7.49663 16.7442 16.7442 16.7442 9.2475 0 16.7442-7.4967 16.7442-16.7442z" fill="url(#a)"/><path d="m33.4884 16.7442c0-9.24757-7.4967-16.7442-16.7442-16.7442-9.24757 0-16.7442 7.49663-16.7442 16.7442 0 9.2475 7.49663 16.7442 16.7442 16.7442 9.2475 0 16.7442-7.4967 16.7442-16.7442z" fill="url(#b)" fill-opacity=".56"/><g fill="#fff"><path d="m17.0107 6.27905c2.6515 0 5.1546.97964 7.0916 2.76564.1074.09904.1085.2672.0052.37046l-4.1 4.09995c-.0992.0994-.2587.1018-.3674.0128-.7405-.6062-1.6593-.9355-2.6277-.9355-2.2926-.0015-4.1567 1.8626-4.1567 4.1518h-6.31499c0-5.7705 4.69779-10.46515 10.46999-10.46515z"/><path d="m12.8557 16.7441c0 2.1486 1.6417 3.922 3.7373 4.1325.1398.0141.2509.1286.2509.269v5.7979c0 .146-.1204.2642-.2664.2582-5.5734-.2284-10.03679-4.832-10.03679-10.4576z"/><path d="m23.2325 17.5747h-2.4691c-.1446 0-.2617.1172-.2617.2617v2.4674c0 .1446.1171.2617.2617.2617h2.4691c.1444 0 .2615-.1171.2615-.2617v-2.4674c0-.1445-.1171-.2617-.2615-.2617z" opacity=".56"/><path d="m26.5549 17.5747h-2.4691c-.1445 0-.2616.1172-.2616.2617v2.4674c0 .1446.1171.2617.2616.2617h2.4691c.1445 0 .2617-.1171.2617-.2617v-2.4674c0-.1445-.1172-.2617-.2617-.2617z" opacity=".4"/><path d="m23.2325 20.8977h-2.4691c-.1446 0-.2617.1171-.2617.2616v2.4675c0 .1445.1171.2616.2617.2616h2.4691c.1444 0 .2615-.1171.2615-.2616v-2.4675c0-.1445-.1171-.2616-.2615-.2616z" opacity=".72"/><path d="m19.9086 20.8977h-2.4692c-.1444 0-.2615.1171-.2615.2616v2.4675c0 .1445.1171.2616.2615.2616h2.4692c.1445 0 .2616-.1171.2616-.2616v-2.4675c0-.1445-.1171-.2616-.2616-.2616z" opacity=".88"/><path d="m26.5549 20.8977h-2.4691c-.1445 0-.2616.1171-.2616.2616v2.4675c0 .1445.1171.2616.2616.2616h2.4691c.1445 0 .2617-.1171.2617-.2616v-2.4675c0-.1445-.1172-.2616-.2617-.2616z" opacity=".56"/><path d="m23.2325 24.2185h-2.4691c-.1446 0-.2617.1171-.2617.2616v2.4675c0 .1445.1171.2616.2617.2616h2.4691c.1444 0 .2615-.1171.2615-.2616v-2.4675c0-.1445-.1171-.2616-.2615-.2616z" opacity=".88"/><path d="m19.9086 24.2185h-2.4692c-.1444 0-.2615.1171-.2615.2616v2.4675c0 .1445.1171.2616.2615.2616h2.4692c.1445 0 .2616-.1171.2616-.2616v-2.4675c0-.1445-.1171-.2616-.2616-.2616z" opacity=".96"/><path d="m26.5549 24.2185h-2.4691c-.1445 0-.2616.1171-.2616.2616v2.4675c0 .1445.1171.2616.2616.2616h2.4691c.1445 0 .2617-.1171.2617-.2616v-2.4675c0-.1445-.1172-.2616-.2617-.2616z" opacity=".72"/><path d="m52.9692 9.41853h2.6372v15.11997c0 .967-.225 1.8656-.675 2.6958-.4396.84-1.036 1.5677-1.7895 2.1831-.7535.625-1.6117 1.1086-2.5744 1.4504-.9628.3517-1.9675.5275-3.014.5275-1.0884 0-2.1401-.2295-3.1553-.6886-1.015-.4493-1.9046-1.055-2.6685-1.8168-.7535-.7521-1.2977-1.5969-1.6326-2.5346l2.4174-1.0256c.1989.6739.5547 1.2795 1.0675 1.8167.5232.547 1.1302.9768 1.8209 1.2893.7012.3224 1.418.4835 2.1506.4835.6907 0 1.3553-.1123 1.9936-.3369.6488-.2247 1.2297-.5373 1.7424-.9377.5233-.3907.9314-.8546 1.2245-1.3918.3034-.5275.4552-1.0989.4552-1.7143v-2.9156c-.5337.84-1.2402 1.5237-2.1192 2.0512-.8686.5177-1.8838.7765-3.0453.7765-1.1093 0-2.1506-.2002-3.1239-.6006-.9733-.4005-1.8262-.9524-2.5587-1.6557-.7326-.713-1.3081-1.5334-1.7267-2.4614-.4186-.9279-.6279-1.9241-.6279-2.9888 0-1.0646.2093-2.0609.6279-2.9888.4186-.9377.9941-1.7582 1.7267-2.4614.7325-.713 1.5854-1.2698 2.5587-1.67025.9733-.40047 2.0146-.6007 3.1239-.6007 1.1615 0 2.1767.25884 3.0453.77651.879.51764 1.5855 1.20144 2.1192 2.05114zm-5.1488 12.64397c1.0151 0 1.8941-.2442 2.6372-.7325.7535-.4884 1.3342-1.138 1.7424-1.9487.4081-.8107.6122-1.6897.6122-2.6372 0-.9767-.2093-1.8656-.6279-2.6665-.4081-.8107-.9889-1.4553-1.7424-1.934-.7431-.4883-1.6169-.7325-2.6215-.7325-.9837 0-1.8837.2393-2.7.7179s-1.4651 1.1233-1.9465 1.934c-.471.8009-.7064 1.6946-.7064 2.6811s.2406 1.8851.7221 2.6958c.4918.801 1.1406 1.4408 1.9464 1.9194.8163.4688 1.7111.7032 2.6844.7032z"/><path d="m58.1251 24.0697v-14.65117h2.6372v1.83147c.5547-.6837 1.2558-1.2259 2.1036-1.62635.8476-.41023 1.7685-.61535 2.7628-.61535.6069 0 1.193.07326 1.7581.21977l-1.0674 2.46143c-.4292-.127-.8478-.1905-1.2559-.1905-.7849 0-1.5069.1807-2.1663.5421-.6488.3517-1.1669.8303-1.554 1.4359-.3873.6055-.5809 1.2795-.5809 2.0218v8.5709z"/><path d="m79.8838 9.41853h2.6372v14.65117h-2.6372l-.1098-2.476c-.492.8498-1.1721 1.5383-2.0408 2.0658-.8581.5274-1.8837.7911-3.0767.7911-1.1512 0-2.2291-.2002-3.2337-.6006-1.0047-.4103-1.8943-.9719-2.6687-1.685-.7639-.7227-1.3604-1.553-1.7895-2.4907-.4291-.9376-.6436-1.9485-.6436-3.0327 0-1.0451.2093-2.0316.6279-2.9595s.9995-1.7386 1.7424-2.4321c.7535-.7033 1.6222-1.25026 2.6059-1.64096.9837-.40051 2.0407-.60074 3.1709-.60074 1.2349 0 2.318.27349 3.2495.82047.9313.53723 1.6848 1.23563 2.2604 2.09513zm-5.2744 12.64397c1.0361 0 1.9308-.2344 2.6843-.7032.764-.4786 1.35-1.1233 1.7581-1.934.4186-.8107.6279-1.7044.6279-2.6812 0-.9963-.2093-1.8949-.6279-2.6958-.4186-.8107-1.0099-1.4504-1.7738-1.9193-.7535-.4786-1.643-.7179-2.6686-.7179-1.036 0-1.9779.2393-2.8256.7179-.8476.4786-1.5227 1.1233-2.025 1.934-.4918.8009-.7378 1.6946-.7378 2.6811s.2564 1.8851.7692 2.6958c.5128.801 1.193 1.4408 2.0407 1.9194.8477.4688 1.7738.7032 2.7785.7032z"/><path d="m94.6651 9.4187h2.7944l-8.5868 21.9767h-2.7942l2.8413-7.3255-5.6354-14.6512h2.8883l4.0657 11.2667z"/><path d="m110.798 9.41853h2.637v15.11997c0 .967-.225 1.8656-.675 2.6958-.439.84-1.036 1.5677-1.79 2.1831-.753.625-1.611 1.1086-2.574 1.4504-.963.3517-1.967.5275-3.014.5275-1.088 0-2.14-.2295-3.155-.6886-1.015-.4493-1.904-1.055-2.6689-1.8168-.7534-.7521-1.2976-1.5969-1.6325-2.5346l2.4174-1.0256c.199.6739.555 1.2795 1.068 1.8167.523.547 1.13.9768 1.821 1.2893.701.3224 1.417.4835 2.15.4835.691 0 1.356-.1123 1.994-.3369.649-.2247 1.23-.5373 1.742-.9377.524-.3907.931-.8546 1.224-1.3918.305-.5275.456-1.0989.456-1.7143v-2.9156c-.534.84-1.24 1.5237-2.119 2.0512-.869.5177-1.884.7765-3.046.7765-1.109 0-2.15-.2002-3.123-.6006-.973-.4005-1.826-.9524-2.5593-1.6557-.7321-.713-1.3079-1.5334-1.7265-2.4614-.4186-.9279-.6279-1.9241-.6279-2.9888 0-1.0646.2093-2.0609.6279-2.9888.4186-.9377.9944-1.7582 1.7265-2.4614.7333-.713 1.5863-1.2698 2.5593-1.67025.973-.40047 2.014-.6007 3.123-.6007 1.162 0 2.177.25884 3.046.77651.879.51764 1.585 1.20144 2.119 2.05114zm-5.149 12.64397c1.015 0 1.894-.2442 2.638-.7325.753-.4884 1.333-1.138 1.742-1.9487.408-.8107.612-1.6897.612-2.6372 0-.9767-.209-1.8656-.628-2.6665-.408-.8107-.989-1.4553-1.742-1.934-.744-.4883-1.617-.7325-2.622-.7325-.984 0-1.883.2393-2.7.7179-.816.4786-1.465 1.1233-1.946 1.934-.471.8009-.707 1.6946-.707 2.6811s.241 1.8851.723 2.6958c.491.801 1.14 1.4408 1.946 1.9194.816.4688 1.711.7032 2.684.7032z"/><path d="m115.953 24.0697v-14.65117h2.638v1.83147c.555-.6837 1.256-1.2259 2.104-1.62635.847-.41023 1.768-.61535 2.763-.61535.606 0 1.192.07326 1.758.21977l-1.068 2.46143c-.429-.127-.848-.1905-1.256-.1905-.785 0-1.507.1807-2.166.5421-.649.3517-1.167.8303-1.554 1.4359-.387.6055-.581 1.2795-.581 2.0218v8.5709z"/><path d="m125.888 9.41867h2.638v14.65113h-2.638zm1.351-2.38814c-.419 0-.769-.12698-1.052-.38093-.283-.25396-.424-.5714-.424-.95233s.141-.69837.424-.95233c.283-.25395.628-.38093 1.036-.38093.409 0 .754.12698 1.037.38093.281.25396.423.5714.423.95233s-.142.69837-.423.95233c-.273.25395-.614.38093-1.021.38093z"/><path d="m143.463 2.09302h2.637v21.97678h-2.637v-2.4907c-.534.8595-1.251 1.553-2.15 2.0804-.901.5275-1.958.7912-3.172.7912-1.14 0-2.208-.2002-3.202-.6007-.994-.4004-1.873-.9523-2.638-1.6556-.753-.713-1.344-1.5335-1.773-2.4614s-.643-1.9242-.643-2.9888c0-1.0647.214-2.0609.643-2.9889.429-.9376 1.02-1.7581 1.773-2.4614.765-.713 1.644-1.2697 2.638-1.67018.994-.40047 2.062-.6007 3.202-.6007 1.214 0 2.271.26372 3.172.79121.899.52747 1.616 1.22097 2.15 2.08047zm-5.29 19.96958c1.035 0 1.93-.2344 2.684-.7033.764-.4786 1.35-1.1232 1.758-1.9339.418-.8107.628-1.7045.628-2.6812 0-.9963-.21-1.8949-.628-2.6958-.419-.8107-1.009-1.4505-1.774-1.9193-.754-.4786-1.643-.7179-2.668-.7179-1.036 0-1.979.2393-2.826.7179-.837.4786-1.507 1.1233-2.009 1.934-.503.8009-.754 1.6946-.754 2.6811s.257 1.8851.769 2.6958c.513.8009 1.194 1.4407 2.041 1.9193.848.4689 1.774.7033 2.779.7033z"/><path d="m153.398 24.348c-.848-.0293-1.674-.1757-2.481-.4395-.795-.2734-1.496-.6397-2.103-1.0988-.596-.4688-1.031-1.006-1.303-1.6116l2.26-.9084c.157.3321.44.6447.849.9377.407.293.879.5274 1.412.7032.534.1759 1.073.2638 1.617.2638.575 0 1.115-.083 1.617-.2491.502-.166.91-.4102 1.224-.7325.325-.3321.487-.7277.487-1.1868 0-.4884-.178-.8693-.534-1.1428-.345-.2833-.784-.5031-1.318-.6593-.524-.166-1.057-.3224-1.601-.4688-1.078-.254-2.041-.5567-2.889-.9084-.848-.3614-1.518-.8156-2.009-1.3626-.482-.5567-.723-1.2648-.723-2.1243 0-.9084.267-1.6947.801-2.3589.544-.6642 1.256-1.17696 2.135-1.53835.879-.36144 1.821-.54214 2.825-.54214 1.267 0 2.423.25395 3.47.76186 1.046.50793 1.826 1.19653 2.339 2.06583l-2.12 1.1574c-.177-.3516-.45-.6592-.815-.923-.367-.2734-.785-.4883-1.256-.6446-.472-.1563-.953-.2394-1.445-.2491-.606-.0196-1.177.0537-1.711.2198-.523.166-.946.42-1.271.7618-.315.3321-.471.7472-.471 1.2454 0 .4883.168.8595.502 1.1134.346.254.79.4591 1.334.6154.555.1465 1.157.3175 1.806.5128.952.2833 1.842.6105 2.668.9816.827.3712 1.491.8352 1.993 1.3919.514.5568.765 1.2453.754 2.0658 0 .8986-.288 1.6849-.863 2.3589-.575.6642-1.324 1.172-2.245 1.5236-.911.3517-1.888.5079-2.935.4688z"/></g></g></svg>

<svg width="160" height="34" viewBox="0 0 160 34" fill="none" xmlns="http://www.w3.org/2000/svg">
<g clip-path="url(#clip0_2128_2)">
<path d="M33.4884 16.7442C33.4884 7.49663 25.9917 0 16.7442 0C7.49663 0 0 7.49663 0 16.7442C0 25.9917 7.49663 33.4884 16.7442 33.4884C25.9917 33.4884 33.4884 25.9917 33.4884 16.7442Z" fill="url(#paint0_linear_2128_2)"/>
<path d="M33.4884 16.7442C33.4884 7.49663 25.9917 0 16.7442 0C7.49663 0 0 7.49663 0 16.7442C0 25.9917 7.49663 33.4884 16.7442 33.4884C25.9917 33.4884 33.4884 25.9917 33.4884 16.7442Z" fill="url(#paint1_linear_2128_2)" fill-opacity="0.56"/>
<path d="M17.0107 6.27905C19.6622 6.27905 22.1653 7.25869 24.1023 9.04469C24.2097 9.14373 24.2108 9.31189 24.1075 9.41515L20.0075 13.5151C19.9083 13.6145 19.7488 13.6169 19.6401 13.5279C18.8996 12.9217 17.9808 12.5924 17.0124 12.5924C14.7198 12.5909 12.8557 14.455 12.8557 16.7442H6.54071C6.54071 10.9737 11.2385 6.27905 17.0107 6.27905Z" fill="white"/>
<path d="M12.8557 16.7441C12.8557 18.8927 14.4974 20.6661 16.593 20.8766C16.7328 20.8907 16.8439 21.0052 16.8439 21.1456V26.9435C16.8439 27.0895 16.7235 27.2077 16.5775 27.2017C11.0041 26.9733 6.54071 22.3697 6.54071 16.7441H12.8557Z" fill="white"/>
<path opacity="0.56" d="M23.2325 17.5747H20.7634C20.6188 17.5747 20.5017 17.6919 20.5017 17.8364V20.3038C20.5017 20.4484 20.6188 20.5655 20.7634 20.5655H23.2325C23.3769 20.5655 23.494 20.4484 23.494 20.3038V17.8364C23.494 17.6919 23.3769 17.5747 23.2325 17.5747Z" fill="white"/>
<path opacity="0.4" d="M26.5549 17.5747H24.0858C23.9413 17.5747 23.8242 17.6919 23.8242 17.8364V20.3038C23.8242 20.4484 23.9413 20.5655 24.0858 20.5655H26.5549C26.6994 20.5655 26.8166 20.4484 26.8166 20.3038V17.8364C26.8166 17.6919 26.6994 17.5747 26.5549 17.5747Z" fill="white"/>
<path opacity="0.72" d="M23.2325 20.8977H20.7634C20.6188 20.8977 20.5017 21.0148 20.5017 21.1593V23.6268C20.5017 23.7713 20.6188 23.8884 20.7634 23.8884H23.2325C23.3769 23.8884 23.494 23.7713 23.494 23.6268V21.1593C23.494 21.0148 23.3769 20.8977 23.2325 20.8977Z" fill="white"/>
<path opacity="0.88" d="M19.9086 20.8977H17.4394C17.295 20.8977 17.1779 21.0148 17.1779 21.1593V23.6268C17.1779 23.7713 17.295 23.8884 17.4394 23.8884H19.9086C20.0531 23.8884 20.1702 23.7713 20.1702 23.6268V21.1593C20.1702 21.0148 20.0531 20.8977 19.9086 20.8977Z" fill="white"/>
<path opacity="0.56" d="M26.5549 20.8977H24.0858C23.9413 20.8977 23.8242 21.0148 23.8242 21.1593V23.6268C23.8242 23.7713 23.9413 23.8884 24.0858 23.8884H26.5549C26.6994 23.8884 26.8166 23.7713 26.8166 23.6268V21.1593C26.8166 21.0148 26.6994 20.8977 26.5549 20.8977Z" fill="white"/>
<path opacity="0.88" d="M23.2325 24.2185H20.7634C20.6188 24.2185 20.5017 24.3356 20.5017 24.4801V26.9476C20.5017 27.0921 20.6188 27.2092 20.7634 27.2092H23.2325C23.3769 27.2092 23.494 27.0921 23.494 26.9476V24.4801C23.494 24.3356 23.3769 24.2185 23.2325 24.2185Z" fill="white"/>
<path opacity="0.96" d="M19.9086 24.2185H17.4394C17.295 24.2185 17.1779 24.3356 17.1779 24.4801V26.9476C17.1779 27.0921 17.295 27.2092 17.4394 27.2092H19.9086C20.0531 27.2092 20.1702 27.0921 20.1702 26.9476V24.4801C20.1702 24.3356 20.0531 24.2185 19.9086 24.2185Z" fill="white"/>
<path opacity="0.72" d="M26.5549 24.2185H24.0858C23.9413 24.2185 23.8242 24.3356 23.8242 24.4801V26.9476C23.8242 27.0921 23.9413 27.2092 24.0858 27.2092H26.5549C26.6994 27.2092 26.8166 27.0921 26.8166 26.9476V24.4801C26.8166 24.3356 26.6994 24.2185 26.5549 24.2185Z" fill="white"/>
<path d="M52.9692 9.41853H55.6064V24.5385C55.6064 25.5055 55.3814 26.4041 54.9314 27.2343C54.4918 28.0743 53.8954 28.802 53.1419 29.4174C52.3884 30.0424 51.5302 30.526 50.5675 30.8678C49.6047 31.2195 48.6 31.3953 47.5535 31.3953C46.4651 31.3953 45.4134 31.1658 44.3982 30.7067C43.3832 30.2574 42.4936 29.6517 41.7297 28.8899C40.9762 28.1378 40.432 27.293 40.0971 26.3553L42.5145 25.3297C42.7134 26.0036 43.0692 26.6092 43.582 27.1464C44.1052 27.6934 44.7122 28.1232 45.4029 28.4357C46.1041 28.7581 46.8209 28.9192 47.5535 28.9192C48.2442 28.9192 48.9088 28.8069 49.5471 28.5823C50.1959 28.3576 50.7768 28.045 51.2895 27.6446C51.8128 27.2539 52.2209 26.79 52.514 26.2528C52.8174 25.7253 52.9692 25.1539 52.9692 24.5385V21.6229C52.4355 22.4629 51.729 23.1466 50.85 23.6741C49.9814 24.1918 48.9662 24.4506 47.8047 24.4506C46.6954 24.4506 45.6541 24.2504 44.6808 23.85C43.7075 23.4495 42.8546 22.8976 42.1221 22.1943C41.3895 21.4813 40.814 20.6609 40.3954 19.7329C39.9768 18.805 39.7675 17.8088 39.7675 16.7441C39.7675 15.6795 39.9768 14.6832 40.3954 13.7553C40.814 12.8176 41.3895 11.9971 42.1221 11.2939C42.8546 10.5809 43.7075 10.0241 44.6808 9.62365C45.6541 9.22318 46.6954 9.02295 47.8047 9.02295C48.9662 9.02295 49.9814 9.28179 50.85 9.79946C51.729 10.3171 52.4355 11.0009 52.9692 11.8506V9.41853ZM47.8204 22.0625C48.8355 22.0625 49.7145 21.8183 50.4576 21.33C51.2111 20.8416 51.7918 20.192 52.2 19.3813C52.6081 18.5706 52.8122 17.6916 52.8122 16.7441C52.8122 15.7674 52.6029 14.8785 52.1843 14.0776C51.7762 13.2669 51.1954 12.6223 50.4419 12.1436C49.6988 11.6553 48.825 11.4111 47.8204 11.4111C46.8367 11.4111 45.9367 11.6504 45.1204 12.129C44.3041 12.6076 43.6553 13.2523 43.1739 14.063C42.7029 14.8639 42.4675 15.7576 42.4675 16.7441C42.4675 17.7306 42.7081 18.6292 43.1896 19.4399C43.6814 20.2409 44.3302 20.8807 45.136 21.3593C45.9523 21.8281 46.8471 22.0625 47.8204 22.0625Z" fill="white"/>
<path d="M58.1251 24.0697V9.41853H60.7623V11.25C61.317 10.5663 62.0181 10.0241 62.8659 9.62365C63.7135 9.21342 64.6344 9.0083 65.6287 9.0083C66.2356 9.0083 66.8217 9.08156 67.3868 9.22807L66.3194 11.6895C65.8902 11.5625 65.4716 11.499 65.0635 11.499C64.2786 11.499 63.5566 11.6797 62.8972 12.0411C62.2484 12.3928 61.7303 12.8714 61.3432 13.477C60.9559 14.0825 60.7623 14.7565 60.7623 15.4988V24.0697H58.1251Z" fill="white"/>
<path d="M79.8838 9.41853H82.521V24.0697H79.8838L79.774 21.5937C79.282 22.4435 78.6019 23.132 77.7332 23.6595C76.8751 24.1869 75.8495 24.4506 74.6565 24.4506C73.5053 24.4506 72.4274 24.2504 71.4228 23.85C70.4181 23.4397 69.5285 22.8781 68.7541 22.165C67.9902 21.4423 67.3937 20.612 66.9646 19.6743C66.5355 18.7367 66.321 17.7258 66.321 16.6416C66.321 15.5965 66.5303 14.61 66.9489 13.6821C67.3675 12.7542 67.9484 11.9435 68.6913 11.25C69.4448 10.5467 70.3135 9.99974 71.2972 9.60904C72.2809 9.20853 73.3379 9.0083 74.4681 9.0083C75.703 9.0083 76.7861 9.28179 77.7176 9.82877C78.6489 10.366 79.4024 11.0644 79.978 11.9239L79.8838 9.41853ZM74.6094 22.0625C75.6455 22.0625 76.5402 21.8281 77.2937 21.3593C78.0577 20.8807 78.6437 20.236 79.0518 19.4253C79.4704 18.6146 79.6797 17.7209 79.6797 16.7441C79.6797 15.7478 79.4704 14.8492 79.0518 14.0483C78.6332 13.2376 78.0419 12.5979 77.278 12.129C76.5245 11.6504 75.635 11.4111 74.6094 11.4111C73.5734 11.4111 72.6315 11.6504 71.7838 12.129C70.9362 12.6076 70.2611 13.2523 69.7588 14.063C69.267 14.8639 69.021 15.7576 69.021 16.7441C69.021 17.7306 69.2774 18.6292 69.7902 19.4399C70.303 20.2409 70.9832 20.8807 71.8309 21.3593C72.6786 21.8281 73.6047 22.0625 74.6094 22.0625Z" fill="white"/>
<path d="M94.6651 9.4187H97.4595L88.8727 31.3954H86.0785L88.9198 24.0699L83.2844 9.4187H86.1727L90.2384 20.6854L94.6651 9.4187Z" fill="white"/>
<path d="M110.798 9.41853H113.435V24.5385C113.435 25.5055 113.21 26.4041 112.76 27.2343C112.321 28.0743 111.724 28.802 110.97 29.4174C110.217 30.0424 109.359 30.526 108.396 30.8678C107.433 31.2195 106.429 31.3953 105.382 31.3953C104.294 31.3953 103.242 31.1658 102.227 30.7067C101.212 30.2574 100.323 29.6517 99.5581 28.8899C98.8047 28.1378 98.2605 27.293 97.9256 26.3553L100.343 25.3297C100.542 26.0036 100.898 26.6092 101.411 27.1464C101.934 27.6934 102.541 28.1232 103.232 28.4357C103.933 28.7581 104.649 28.9192 105.382 28.9192C106.073 28.9192 106.738 28.8069 107.376 28.5823C108.025 28.3576 108.606 28.045 109.118 27.6446C109.642 27.2539 110.049 26.79 110.342 26.2528C110.647 25.7253 110.798 25.1539 110.798 24.5385V21.6229C110.264 22.4629 109.558 23.1466 108.679 23.6741C107.81 24.1918 106.795 24.4506 105.633 24.4506C104.524 24.4506 103.483 24.2504 102.51 23.85C101.537 23.4495 100.684 22.8976 99.9507 22.1943C99.2186 21.4813 98.6428 20.6609 98.2242 19.7329C97.8056 18.805 97.5963 17.8088 97.5963 16.7441C97.5963 15.6795 97.8056 14.6832 98.2242 13.7553C98.6428 12.8176 99.2186 11.9971 99.9507 11.2939C100.684 10.5809 101.537 10.0241 102.51 9.62365C103.483 9.22318 104.524 9.02295 105.633 9.02295C106.795 9.02295 107.81 9.28179 108.679 9.79946C109.558 10.3171 110.264 11.0009 110.798 11.8506V9.41853ZM105.649 22.0625C106.664 22.0625 107.543 21.8183 108.287 21.33C109.04 20.8416 109.62 20.192 110.029 19.3813C110.437 18.5706 110.641 17.6916 110.641 16.7441C110.641 15.7674 110.432 14.8785 110.013 14.0776C109.605 13.2669 109.024 12.6223 108.271 12.1436C107.527 11.6553 106.654 11.4111 105.649 11.4111C104.665 11.4111 103.766 11.6504 102.949 12.129C102.133 12.6076 101.484 13.2523 101.003 14.063C100.532 14.8639 100.296 15.7576 100.296 16.7441C100.296 17.7306 100.537 18.6292 101.019 19.4399C101.51 20.2409 102.159 20.8807 102.965 21.3593C103.781 21.8281 104.676 22.0625 105.649 22.0625Z" fill="white"/>
<path d="M115.953 24.0697V9.41853H118.591V11.25C119.146 10.5663 119.847 10.0241 120.695 9.62365C121.542 9.21342 122.463 9.0083 123.458 9.0083C124.064 9.0083 124.65 9.08156 125.216 9.22807L124.148 11.6895C123.719 11.5625 123.3 11.499 122.892 11.499C122.107 11.499 121.385 11.6797 120.726 12.0411C120.077 12.3928 119.559 12.8714 119.172 13.477C118.785 14.0825 118.591 14.7565 118.591 15.4988V24.0697H115.953Z" fill="white"/>
<path d="M125.888 9.41867H128.526V24.0698H125.888V9.41867ZM127.239 7.03053C126.82 7.03053 126.47 6.90355 126.187 6.6496C125.904 6.39564 125.763 6.0782 125.763 5.69727C125.763 5.31634 125.904 4.9989 126.187 4.74494C126.47 4.49099 126.815 4.36401 127.223 4.36401C127.632 4.36401 127.977 4.49099 128.26 4.74494C128.541 4.9989 128.683 5.31634 128.683 5.69727C128.683 6.0782 128.541 6.39564 128.26 6.6496C127.987 6.90355 127.646 7.03053 127.239 7.03053Z" fill="white"/>
<path d="M143.463 2.09302H146.1V24.0698H143.463V21.5791C142.929 22.4386 142.212 23.1321 141.313 23.6595C140.412 24.187 139.355 24.4507 138.141 24.4507C137.001 24.4507 135.933 24.2505 134.939 23.85C133.945 23.4496 133.066 22.8977 132.301 22.1944C131.548 21.4814 130.957 20.6609 130.528 19.733C130.099 18.8051 129.885 17.8088 129.885 16.7442C129.885 15.6795 130.099 14.6833 130.528 13.7553C130.957 12.8177 131.548 11.9972 132.301 11.2939C133.066 10.5809 133.945 10.0242 134.939 9.62372C135.933 9.22325 137.001 9.02302 138.141 9.02302C139.355 9.02302 140.412 9.28674 141.313 9.81423C142.212 10.3417 142.929 11.0352 143.463 11.8947V2.09302ZM138.173 22.0626C139.208 22.0626 140.103 21.8282 140.857 21.3593C141.621 20.8807 142.207 20.2361 142.615 19.4254C143.033 18.6147 143.243 17.7209 143.243 16.7442C143.243 15.7479 143.033 14.8493 142.615 14.0484C142.196 13.2377 141.606 12.5979 140.841 12.1291C140.087 11.6505 139.198 11.4112 138.173 11.4112C137.137 11.4112 136.194 11.6505 135.347 12.1291C134.51 12.6077 133.84 13.2524 133.338 14.0631C132.835 14.864 132.584 15.7577 132.584 16.7442C132.584 17.7307 132.841 18.6293 133.353 19.44C133.866 20.2409 134.547 20.8807 135.394 21.3593C136.242 21.8282 137.168 22.0626 138.173 22.0626Z" fill="white"/>
<path d="M153.398 24.348C152.55 24.3187 151.724 24.1723 150.917 23.9085C150.122 23.6351 149.421 23.2688 148.814 22.8097C148.218 22.3409 147.783 21.8037 147.511 21.1981L149.771 20.2897C149.928 20.6218 150.211 20.9344 150.62 21.2274C151.027 21.5204 151.499 21.7548 152.032 21.9306C152.566 22.1065 153.105 22.1944 153.649 22.1944C154.224 22.1944 154.764 22.1114 155.266 21.9453C155.768 21.7793 156.176 21.5351 156.49 21.2128C156.815 20.8807 156.977 20.4851 156.977 20.026C156.977 19.5376 156.799 19.1567 156.443 18.8832C156.098 18.5999 155.659 18.3801 155.125 18.2239C154.601 18.0579 154.068 17.9015 153.524 17.7551C152.446 17.5011 151.483 17.1984 150.635 16.8467C149.787 16.4853 149.117 16.0311 148.626 15.4841C148.144 14.9274 147.903 14.2193 147.903 13.3598C147.903 12.4514 148.17 11.6651 148.704 11.0009C149.248 10.3367 149.96 9.82394 150.839 9.46255C151.718 9.10111 152.66 8.92041 153.664 8.92041C154.931 8.92041 156.087 9.17436 157.134 9.68227C158.18 10.1902 158.96 10.8788 159.473 11.7481L157.353 12.9055C157.176 12.5539 156.903 12.2463 156.538 11.9825C156.171 11.7091 155.753 11.4942 155.282 11.3379C154.81 11.1816 154.329 11.0985 153.837 11.0888C153.231 11.0692 152.66 11.1425 152.126 11.3086C151.603 11.4746 151.18 11.7286 150.855 12.0704C150.54 12.4025 150.384 12.8176 150.384 13.3158C150.384 13.8041 150.552 14.1753 150.886 14.4292C151.232 14.6832 151.676 14.8883 152.22 15.0446C152.775 15.1911 153.377 15.3621 154.026 15.5574C154.978 15.8407 155.868 16.1679 156.694 16.539C157.521 16.9102 158.185 17.3742 158.687 17.9309C159.201 18.4877 159.452 19.1762 159.441 19.9967C159.441 20.8953 159.153 21.6816 158.578 22.3556C158.003 23.0198 157.254 23.5276 156.333 23.8792C155.422 24.2309 154.445 24.3871 153.398 24.348Z" fill="white"/>
</g>
<defs>
<linearGradient id="paint0_linear_2128_2" x1="16.7442" y1="0" x2="16.7442" y2="33.4884" gradientUnits="userSpaceOnUse">
<stop stop-color="#3558EA"/>
<stop offset="1" stop-color="#0000FF"/>
</linearGradient>
<linearGradient id="paint1_linear_2128_2" x1="21.1993" y1="4.86459" x2="6.44922" y2="48.8139" gradientUnits="userSpaceOnUse">
<stop offset="0.215628" stop-color="#1E1983" stop-opacity="0"/>
<stop offset="0.447191" stop-color="#1E1983" stop-opacity="0.19"/>
<stop offset="0.619792" stop-color="#1E1983"/>
</linearGradient>
<clipPath id="clip0_2128_2">
<rect width="160" height="33.4884" fill="white"/>
</clipPath>
</defs>
</svg>
